X:41
T:New High Level, The
C:Joe Buchanan's Scottish Tome - Page 162.1
I:162 1
Z:Carl Allison
R:Hornpipe
L:1/8
M:4/4
K:G
D2 | "G"G2 DG B2 GB | "G"d2 (ed) cBAG | "D7"F2 DE A2 FG | "D7"d^cde d=cBA |
"G"G2 DG B2 GB | "G"d2 (ed) cBAG | "D7"FDFA dcBA | "G"G2 B2 G2 :|
Bc | "G"d2 Bd "G/B"gdBd | "C"e2 ce gece | "G"d2 Bd "Em"gdBd | "Am"c2 fe "D7"dcBc |
"G"d2 Bd gdBd | "C"e2 ce "Am"gece | "G"dgfe "D7"dcBA | "G"G2 B2 G2 :|

